X: 20158
T: Joanie's
R: reel
M: 4/4
K: Dmajor
D ~F3 EF G/F/E|~F3 d fdAf|~g2 ec Ac e/d/c|d/d/d AG FAEA|
DEFD ~E3 G|FA d/e/f fdAf|g/g/g ec ~A2 B/c/d|e/f/e dc d2:|
|:~f3 A ~g2 g/a/b|a/a/a fd Ad f/g/a|gcec Ac e/d/c|d/d/d AG ~F3 A|
fA d/e/f gab^g|~a2 fd A/A/A d/e/f|~g2 ec A/A/A B/c/d|e/e/e dc d2:|

